X:1
T:Title
%%score { 1 | 2 }
L:1/8
M:4/4
K:G
V:1 treble nm="Grand Piano"
V:2 bass 
V:1
 z4 z2[Q:1/4=100] DD | B3 A G2 G2 | [Ec]2 [DA]6 | [Dd]3 [DB] [EG]2 [DB]2 | %4
[M:3/4] [CE]2 [EA]2 [DF]2 |[M:1/4] [FA][FA] |[M:4/4] [Fc]2 [Gc]2 [Ac]2 [Fd]2 | c2 B4 BB | %8
 A2 d2 [DF]2 [^CE]2 |[M:3/4] D4 z2 |[M:1/4] DD |[M:4/4] E2 [Ec]2 [EA]2 G2 | G2 F4 FF | %13
 G2 [Ge]2 [Ec]2 [EA]2 |[M:3/4] F6 |[M:1/4] DD |[M:4/4] G3 G B,2 C2 | E2 D2 ^D2 D2 | E2 G2 F3 A | %19
[M:3/4] [B,G]6 |] %20
V:2
 z4 z2 D,D, | B,3 A, G,2 G,2 | [C,G,]2 [D,F,]6 | [B,,G,]3 [B,,G,] [C,G,]2 [B,,G,]2 | %4
[M:3/4] [C,G,]2 [^C,A,]2 [D,A,]2 |[M:1/4] [D,D][D,D] |[M:4/4] [D,D]2 [E,D]2 [F,D]2 [D,D]2 | %7
 [G,DG]2 [G,DG]4 [G,DG][G,DG] | [A,DF]2 [A,DF]2[K:bass] [A,,A,]2 [A,,G,]2 |[M:3/4] [D,F,]4 z2 | %10
[M:1/4] [D,F,][D,F,] |[M:4/4] [D,G,C]2 [D,G,]2 [D,C]2 [D,B,D]2 | [D,A,C]2 [D,A,C]4 [D,A,C][D,A,C] | %13
 [E,G,B,]2 [E,B,]2 [A,,A,]2 [C,A,]2 |[M:3/4] [D,A,D]6 |[M:1/4] D,D, |[M:4/4] G,3 G, B,,2 C,2 | %17
 E,2 D,2 [B,,G,]2 [B,,G,]2 | [C,G,]2 [C,E,C]2 [D,A,C]3 [D,F,C] |[M:3/4] [G,,G,]6 |] %20

